app/dist/common/images/gansu-energy-chemi.svg

<svg height="18" viewBox="0 0 18 18" width="18" xmlns="http://www.w3.org/2000/svg"><path d="m0 0h18v18h-18z" fill="#f0f3fa"/><path d="m7.96 8a1.4 1.4 0 0 0 -1.36-1c-1.1 0-1.6 1.03-1.6 2 0 .98.48 2 1.61 2 .83 0 1.4-.39 1.4-1.21l.23.04h-1.52v-.83h2.28v.7c0 1.4-.98 2.3-2.4 2.3-1.67 0-2.6-1.42-2.6-3 0-1.5.91-3 2.58-3 1.16 0 2.25.82 2.42 2zm2.04 4v-6h4v1h-3v1.5h2.5v1h-2.5v1.5h3v1z"/></svg>

<!-- by TradingView --><svg width="18" height="18" viewBox="0 0 18 18" xmlns="http://www.w3.org/2000/svg"><path fill="#F0F3FA" d="M0 0h18v18H0z"/><path d="M7.96 8A1.4 1.4 0 0 0 6.6 7C5.5 7 5 8.03 5 9c0 .98.48 2 1.61 2 .83 0 1.4-.39 1.4-1.21l.23.04H6.72V9H9v.7c0 1.4-.98 2.3-2.4 2.3C4.93 12 4 10.58 4 9c0-1.5.91-3 2.58-3C7.74 6 8.83 6.82 9 8H7.96ZM10 12V6h4v1h-3v1.5h2.5v1H11V11h3v1h-4Z"/></svg>
